X: 59
T:Over the Waterfall
M:C|
R:Reel
L:1/8
S:https://tunearch.org/wiki/Over_the_Waterfall
K:D
de|f2a2 (gf) e2|(de)dB A2 de|f2a2 (gf) e2|d3 (e d2)de|
f2a2 (gf) e2|(de)dB A2 AB|=c2 c2 B A3| G3 (A G2):| 
|:FG|A2A2 B2B2|(AB)AG F2 FG|A2d2 (cd) e2|d3 e d2 FG|
AFAd BGBd|(AB)AG F2 FG|A2F2 (GF)E2|D3D D3:|]

